X:200
T:Morning Star, The
R:reel
Z:Transcribed by Dave Marshall
M:C|
K:G
|| ~B3A BGEF|GABd efge|~B3A BGEF|GBAF ~G3A|
~B3A BGEF|GABd efge|dBBA BGEF|GBAF G4|
|(3Bcd ef g2eg|f2df edBA|(3Bcd ef g2eg|fedf ~e3d|
(3Bcd ef g2eg|f2df edBA|Bdd^c d2ef|gaaf gfed||
